bernoullicharts/1_3_x__bound.svg

<?xml version="1.0" encoding="utf-8" standalone="no"?>
<!DOCTYPE svg PUBLIC "-//W3C//DTD SVG 1.1//EN"
  "http://www.w3.org/Graphics/SVG/1.1/DTD/svg11.dtd">
<!-- Created with matplotlib (https://matplotlib.org/) -->
<svg height="345.6pt" version="1.1" viewBox="0 0 460.8 345.6" width="460.8pt" xmlns="http://www.w3.org/2000/svg" xmlns:xlink="http://www.w3.org/1999/xlink">
 <defs>
  <style type="text/css">
*{stroke-linecap:butt;stroke-linejoin:round;}
  </style>
 </defs>
 <g id="figure_1">
  <g id="patch_1">
   <path d="M 0 345.6 
L 460.8 345.6 
L 460.8 0 
L 0 0 
z
" style="fill:#ffffff;"/>
  </g>
  <g id="axes_1">
   <g id="patch_2">
    <path d="M 57.6 307.584 
L 414.72 307.584 
L 414.72 41.472 
L 57.6 41.472 
z
" style="fill:#ffffff;"/>
   </g>
   <g id="matplotlib.axis_1">
    <g id="xtick_1">
     <g id="line2d_1">
      <defs>
       <path d="M 0 0 
L 0 3.5 
" id="mad74cb7bed" style="stroke:#000000;stroke-width:0.8;"/>
      </defs>
      <g>
       <use style="stroke:#000000;stroke-width:0.8;" x="73.800255" xlink:href="#mad74cb7bed" y="307.584"/>
      </g>
     </g>
     <g id="text_1">
      <text style="font-family:DejaVu Sans;font-size:10px;font-style:normal;font-weight:normal;text-anchor:middle;" transform="rotate(-0, 73.800255, 322.182437)" x="73.800255" y="322.182437">0.0</text>
     </g>
    </g>
    <g id="xtick_2">
     <g id="line2d_2">
      <g>
       <use style="stroke:#000000;stroke-width:0.8;" x="138.744153" xlink:href="#mad74cb7bed" y="307.584"/>
      </g>
     </g>
     <g id="text_2">
      <text style="font-family:DejaVu Sans;font-size:10px;font-style:normal;font-weight:normal;text-anchor:middle;" transform="rotate(-0, 138.744153, 322.182437)" x="138.744153" y="322.182437">0.2</text>
     </g>
    </g>
    <g id="xtick_3">
     <g id="line2d_3">
      <g>
       <use style="stroke:#000000;stroke-width:0.8;" x="203.688051" xlink:href="#mad74cb7bed" y="307.584"/>
      </g>
     </g>
     <g id="text_3">
      <text style="font-family:DejaVu Sans;font-size:10px;font-style:normal;font-weight:normal;text-anchor:middle;" transform="rotate(-0, 203.688051, 322.182437)" x="203.688051" y="322.182437">0.4</text>
     </g>
    </g>
    <g id="xtick_4">
     <g id="line2d_4">
      <g>
       <use style="stroke:#000000;stroke-width:0.8;" x="268.631949" xlink:href="#mad74cb7bed" y="307.584"/>
      </g>
     </g>
     <g id="text_4">
      <text style="font-family:DejaVu Sans;font-size:10px;font-style:normal;font-weight:normal;text-anchor:middle;" transform="rotate(-0, 268.631949, 322.182437)" x="268.631949" y="322.182437">0.6</text>
     </g>
    </g>
    <g id="xtick_5">
     <g id="line2d_5">
      <g>
       <use style="stroke:#000000;stroke-width:0.8;" x="333.575847" xlink:href="#mad74cb7bed" y="307.584"/>
      </g>
     </g>
     <g id="text_5">
      <text style="font-family:DejaVu Sans;font-size:10px;font-style:normal;font-weight:normal;text-anchor:middle;" transform="rotate(-0, 333.575847, 322.182437)" x="333.575847" y="322.182437">0.8</text>
     </g>
    </g>
    <g id="xtick_6">
     <g id="line2d_6">
      <g>
       <use style="stroke:#000000;stroke-width:0.8;" x="398.519745" xlink:href="#mad74cb7bed" y="307.584"/>
      </g>
     </g>
     <g id="text_6">
      <text style="font-family:DejaVu Sans;font-size:10px;font-style:normal;font-weight:normal;text-anchor:middle;" transform="rotate(-0, 398.519745, 322.182437)" x="398.519745" y="322.182437">1.0</text>
     </g>
    </g>
    <g id="text_7">
     <text style="font-family:DejaVu Sans;font-size:10px;font-style:normal;font-weight:normal;text-anchor:middle;" transform="rotate(-0, 236.16, 335.860562)" x="236.16" y="335.860562">Input Coin's Heads Probability (λ)</text>
    </g>
   </g>
   <g id="matplotlib.axis_2">
    <g id="ytick_1">
     <g id="line2d_7">
      <defs>
       <path d="M 0 0 
L -3.5 0 
" id="m4845c1f744" style="stroke:#000000;stroke-width:0.8;"/>
      </defs>
      <g>
       <use style="stroke:#000000;stroke-width:0.8;" x="57.6" xlink:href="#m4845c1f744" y="295.489355"/>
      </g>
     </g>
     <g id="text_8">
      <text style="font-family:DejaVu Sans;font-size:10px;font-style:normal;font-weight:normal;text-anchor:end;" transform="rotate(-0, 50.6, 299.288574)" x="50.6" y="299.288574">0.00</text>
     </g>
    </g>
    <g id="ytick_2">
     <g id="line2d_8">
      <g>
       <use style="stroke:#000000;stroke-width:0.8;" x="57.6" xlink:href="#m4845c1f744" y="262.973044"/>
      </g>
     </g>
     <g id="text_9">
      <text style="font-family:DejaVu Sans;font-size:10px;font-style:normal;font-weight:normal;text-anchor:end;" transform="rotate(-0, 50.6, 266.772262)" x="50.6" y="266.772262">0.05</text>
     </g>
    </g>
    <g id="ytick_3">
     <g id="line2d_9">
      <g>
       <use style="stroke:#000000;stroke-width:0.8;" x="57.6" xlink:href="#m4845c1f744" y="230.456733"/>
      </g>
     </g>
     <g id="text_10">
      <text style="font-family:DejaVu Sans;font-size:10px;font-style:normal;font-weight:normal;text-anchor:end;" transform="rotate(-0, 50.6, 234.255951)" x="50.6" y="234.255951">0.10</text>
     </g>
    </g>
    <g id="ytick_4">
     <g id="line2d_10">
      <g>
       <use style="stroke:#000000;stroke-width:0.8;" x="57.6" xlink:href="#m4845c1f744" y="197.940421"/>
      </g>
     </g>
     <g id="text_11">
      <text style="font-family:DejaVu Sans;font-size:10px;font-style:normal;font-weight:normal;text-anchor:end;" transform="rotate(-0, 50.6, 201.73964)" x="50.6" y="201.73964">0.15</text>
     </g>
    </g>
    <g id="ytick_5">
     <g id="line2d_11">
      <g>
       <use style="stroke:#000000;stroke-width:0.8;" x="57.6" xlink:href="#m4845c1f744" y="165.42411"/>
      </g>
     </g>
     <g id="text_12">
      <text style="font-family:DejaVu Sans;font-size:10px;font-style:normal;font-weight:normal;text-anchor:end;" transform="rotate(-0, 50.6, 169.223329)" x="50.6" y="169.223329">0.20</text>
     </g>
    </g>
    <g id="ytick_6">
     <g id="line2d_12">
      <g>
       <use style="stroke:#000000;stroke-width:0.8;" x="57.6" xlink:href="#m4845c1f744" y="132.907799"/>
      </g>
     </g>
     <g id="text_13">
      <text style="font-family:DejaVu Sans;font-size:10px;font-style:normal;font-weight:normal;text-anchor:end;" transform="rotate(-0, 50.6, 136.707018)" x="50.6" y="136.707018">0.25</text>
     </g>
    </g>
    <g id="ytick_7">
     <g id="line2d_13">
      <g>
       <use style="stroke:#000000;stroke-width:0.8;" x="57.6" xlink:href="#m4845c1f744" y="100.391488"/>
      </g>
     </g>
     <g id="text_14">
      <text style="font-family:DejaVu Sans;font-size:10px;font-style:normal;font-weight:normal;text-anchor:end;" transform="rotate(-0, 50.6, 104.190707)" x="50.6" y="104.190707">0.30</text>
     </g>
    </g>
    <g id="ytick_8">
     <g id="line2d_14">
      <g>
       <use style="stroke:#000000;stroke-width:0.8;" x="57.6" xlink:href="#m4845c1f744" y="67.875177"/>
      </g>
     </g>
     <g id="text_15">
      <text style="font-family:DejaVu Sans;font-size:10px;font-style:normal;font-weight:normal;text-anchor:end;" transform="rotate(-0, 50.6, 71.674396)" x="50.6" y="71.674396">0.35</text>
     </g>
    </g>
    <g id="text_16">
     <text style="font-family:DejaVu Sans;font-size:10px;font-style:normal;font-weight:normal;text-anchor:middle;" transform="rotate(-90, 22.254687, 174.528)" x="22.254687" y="174.528">Coin Flips Needed</text>
    </g>
   </g>
   <g id="line2d_15">
    <path clip-path="url(#p1b4d97cc84)" d="M 73.832727 295.485743 
L 77.112066 295.128937 
L 80.391405 294.787636 
L 83.670744 294.461396 
L 86.950083 294.149786 
L 90.229421 293.852384 
L 93.50876 293.568784 
L 96.788099 293.298589 
L 100.067438 293.041416 
L 103.346777 292.796891 
L 106.626116 292.564651 
L 109.905455 292.344343 
L 113.184793 292.135625 
L 116.464132 291.938165 
L 119.743471 291.751639 
L 123.02281 291.575732 
L 126.302149 291.410139 
L 129.581488 291.254564 
L 132.860826 291.108718 
L 136.140165 290.97232 
L 139.419504 290.845098 
L 142.698843 290.726786 
L 145.978182 290.617128 
L 149.257521 290.515872 
L 152.53686 290.422775 
L 155.816198 290.3376 
L 159.095537 290.260117 
L 162.374876 290.190102 
L 165.654215 290.127336 
L 168.933554 290.071609 
L 172.212893 290.022714 
L 175.492231 289.98045 
L 178.77157 289.944623 
L 182.050909 289.915042 
L 185.330248 289.891525 
L 188.609587 289.87389 
L 191.888926 289.861964 
L 195.168264 289.855576 
L 198.447603 289.854562 
L 201.726942 289.858759 
L 205.006281 289.868013 
L 208.28562 289.882171 
L 211.564959 289.901083 
L 214.844298 289.924607 
L 218.123636 289.952602 
L 221.402975 289.984932 
L 224.682314 290.021463 
L 227.961653 290.062065 
L 231.240992 290.106614 
L 234.520331 290.154987 
L 237.799669 290.207063 
L 241.079008 290.262728 
L 244.358347 290.321868 
L 247.637686 290.384373 
L 250.917025 290.450136 
L 254.196364 290.519053 
L 257.475702 290.591022 
L 260.755041 290.665944 
L 264.03438 290.743724 
L 267.313719 290.824267 
L 270.593058 290.907482 
L 273.872397 290.993281 
L 277.151736 291.081577 
L 280.431074 291.172286 
L 283.710413 291.265326 
L 286.989752 291.360617 
L 290.269091 291.458082 
L 293.54843 291.557645 
L 296.827769 291.659232 
L 300.107107 291.762771 
L 303.386446 291.868193 
L 306.665785 291.975431 
L 309.945124 292.084416 
L 313.224463 292.195086 
L 316.503802 292.307377 
L 319.78314 292.421229 
L 323.062479 292.536581 
L 326.341818 292.653376 
L 329.621157 292.771558 
L 332.900496 292.891071 
L 336.179835 293.011862 
L 339.459174 293.133879 
L 342.738512 293.257071 
L 346.017851 293.38139 
L 349.29719 293.506786 
L 352.576529 293.633213 
L 355.855868 293.760625 
L 359.135207 293.888979 
L 362.414545 294.018231 
L 365.693884 294.148338 
L 368.973223 294.279261 
L 372.252562 294.410959 
L 375.531901 294.543393 
L 378.81124 294.676525 
L 382.090579 294.81032 
L 385.369917 294.94474 
L 388.649256 295.079752 
L 391.928595 295.215321 
L 395.207934 295.351414 
L 398.487273 295.488 
" style="fill:none;stroke:#1f77b4;stroke-linecap:square;stroke-width:1.5;"/>
   </g>
   <g id="line2d_16">
    <path clip-path="url(#p1b4d97cc84)" d="M 73.832727 97.790183 
L 77.112066 62.672567 
L 80.391405 89.986268 
L 83.670744 56.169305 
L 86.950083 57.469957 
L 90.229421 53.568 
L 93.50876 58.77061 
L 96.788099 74.378439 
L 100.067438 93.888226 
L 103.346777 84.783659 
L 106.626116 113.398012 
L 109.905455 84.783659 
L 113.184793 106.89475 
L 116.464132 117.29997 
L 119.743471 60.071262 
L 123.02281 118.600622 
L 126.302149 91.286921 
L 129.581488 117.29997 
L 132.860826 96.489531 
L 136.140165 65.273872 
L 139.419504 56.169305 
L 142.698843 104.293445 
L 145.978182 84.783659 
L 149.257521 131.607147 
L 152.53686 142.012366 
L 155.816198 112.09736 
L 159.095537 126.404537 
L 162.374876 62.672567 
L 165.654215 82.182354 
L 168.933554 96.489531 
L 172.212893 100.391488 
L 175.492231 121.201927 
L 178.77157 114.698665 
L 182.050909 104.293445 
L 185.330248 117.29997 
L 188.609587 95.188878 
L 191.888926 112.09736 
L 195.168264 121.201927 
L 198.447603 89.986268 
L 201.726942 139.411061 
L 205.006281 96.489531 
L 208.28562 92.587573 
L 211.564959 147.214976 
L 214.844298 121.201927 
L 218.123636 92.587573 
L 221.402975 88.685616 
L 224.682314 109.496055 
L 227.961653 70.476482 
L 231.240992 118.600622 
L 234.520331 126.404537 
L 237.799669 123.803232 
L 241.079008 71.777134 
L 244.358347 112.09736 
L 247.637686 113.398012 
L 250.917025 91.286921 
L 254.196364 88.685616 
L 257.475702 114.698665 
L 260.755041 100.391488 
L 264.03438 102.992793 
L 267.313719 92.587573 
L 270.593058 123.803232 
L 273.872397 87.384964 
L 277.151736 105.594098 
L 280.431074 108.195403 
L 283.710413 117.29997 
L 286.989752 140.711714 
L 290.269091 130.306494 
L 293.54843 131.607147 
L 296.827769 145.914324 
L 300.107107 100.391488 
L 303.386446 127.705189 
L 306.665785 104.293445 
L 309.945124 126.404537 
L 313.224463 138.110409 
L 316.503802 129.005842 
L 319.78314 117.29997 
L 323.062479 97.790183 
L 326.341818 140.711714 
L 329.621157 122.50258 
L 332.900496 121.201927 
L 336.179835 113.398012 
L 339.459174 131.607147 
L 342.738512 143.313019 
L 346.017851 164.123458 
L 349.29719 135.509104 
L 352.576529 132.907799 
L 355.855868 131.607147 
L 359.135207 130.306494 
L 362.414545 129.005842 
L 365.693884 151.116933 
L 368.973223 131.607147 
L 372.252562 139.411061 
L 375.531901 144.613671 
L 378.81124 134.208452 
L 382.090579 144.613671 
L 385.369917 106.89475 
L 388.649256 135.509104 
L 391.928595 119.901275 
L 395.207934 140.711714 
L 398.487273 155.018891 
" style="fill:none;stroke:#ff7f0e;stroke-linecap:square;stroke-width:1.5;"/>
   </g>
   <g id="patch_3">
    <path d="M 57.6 307.584 
L 57.6 41.472 
" style="fill:none;stroke:#000000;stroke-linecap:square;stroke-linejoin:miter;stroke-width:0.8;"/>
   </g>
   <g id="patch_4">
    <path d="M 414.72 307.584 
L 414.72 41.472 
" style="fill:none;stroke:#000000;stroke-linecap:square;stroke-linejoin:miter;stroke-width:0.8;"/>
   </g>
   <g id="patch_5">
    <path d="M 57.6 307.584 
L 414.72 307.584 
" style="fill:none;stroke:#000000;stroke-linecap:square;stroke-linejoin:miter;stroke-width:0.8;"/>
   </g>
   <g id="patch_6">
    <path d="M 57.6 41.472 
L 414.72 41.472 
" style="fill:none;stroke:#000000;stroke-linecap:square;stroke-linejoin:miter;stroke-width:0.8;"/>
   </g>
   <g id="text_17">
    <text style="font-family:DejaVu Sans;font-size:12px;font-style:normal;font-weight:normal;text-anchor:middle;" transform="rotate(-0, 236.16, 35.472)" x="236.16" y="35.472">Coin Flips for 1/(3+x)</text>
   </g>
   <g id="legend_1">
    <g id="patch_7">
     <path d="M 64.6 190.706125 
L 252.535938 190.706125 
Q 254.535938 190.706125 254.535938 188.706125 
L 254.535938 160.349875 
Q 254.535938 158.349875 252.535938 158.349875 
L 64.6 158.349875 
Q 62.6 158.349875 62.6 160.349875 
L 62.6 188.706125 
Q 62.6 190.706125 64.6 190.706125 
z
" style="fill:#ffffff;opacity:0.8;stroke:#cccccc;stroke-linejoin:miter;"/>
    </g>
    <g id="line2d_17">
     <path d="M 66.6 166.448312 
L 86.6 166.448312 
" style="fill:none;stroke:#1f77b4;stroke-linecap:square;stroke-width:1.5;"/>
    </g>
    <g id="line2d_18"/>
    <g id="text_18">
     <text style="font-family:DejaVu Sans;font-size:10px;font-style:normal;font-weight:normal;text-anchor:start;" transform="rotate(-0, 94.6, 169.948312)" x="94.6" y="169.948312">Coin Flip Lower Bound (Mendo)</text>
    </g>
    <g id="line2d_19">
     <path d="M 66.6 181.126437 
L 86.6 181.126437 
" style="fill:none;stroke:#ff7f0e;stroke-linecap:square;stroke-width:1.5;"/>
    </g>
    <g id="line2d_20"/>
    <g id="text_19">
     <text style="font-family:DejaVu Sans;font-size:10px;font-style:normal;font-weight:normal;text-anchor:start;" transform="rotate(-0, 94.6, 184.626437)" x="94.6" y="184.626437">Avg. Coins Flipped 1/(3+x)</text>
    </g>
   </g>
  </g>
 </g>
 <defs>
  <clipPath id="p1b4d97cc84">
   <rect height="266.112" width="357.12" x="57.6" y="41.472"/>
  </clipPath>
 </defs>
</svg>

<svg height="460.8" viewBox="0 0 460.8 345.6" width="614.4" xmlns="http://www.w3.org/2000/svg" xmlns:xlink="http://www.w3.org/1999/xlink"><defs><style>*{stroke-linecap:butt;stroke-linejoin:round}</style></defs><g id="figure_1"><path d="M0 345.6h460.8V0H0z" fill="#fff" id="patch_1"/><g id="axes_1"><path d="M57.6 307.584h357.12V41.472H57.6z" fill="#fff" id="patch_2"/><g id="matplotlib.axis_1"><g id="xtick_1"><g id="line2d_1"><defs><path d="M0 0v3.5" id="mad74cb7bed" stroke="#000" stroke-width=".8"/></defs><use x="73.8" xlink:href="#mad74cb7bed" y="307.584" stroke="#000" stroke-width=".8"/></g><text x="73.8" y="322.182" font-family="DejaVu Sans" font-size="10" font-weight="400" text-anchor="middle" id="text_1">0.0</text></g><g id="xtick_2"><use x="138.744" xlink:href="#mad74cb7bed" y="307.584" stroke="#000" stroke-width=".8" id="line2d_2"/><text x="138.744" y="322.182" font-family="DejaVu Sans" font-size="10" font-weight="400" text-anchor="middle" id="text_2">0.2</text></g><g id="xtick_3"><use x="203.688" xlink:href="#mad74cb7bed" y="307.584" stroke="#000" stroke-width=".8" id="line2d_3"/><text x="203.688" y="322.182" font-family="DejaVu Sans" font-size="10" font-weight="400" text-anchor="middle" id="text_3">0.4</text></g><g id="xtick_4"><use x="268.632" xlink:href="#mad74cb7bed" y="307.584" stroke="#000" stroke-width=".8" id="line2d_4"/><text x="268.632" y="322.182" font-family="DejaVu Sans" font-size="10" font-weight="400" text-anchor="middle" id="text_4">0.6</text></g><g id="xtick_5"><use x="333.576" xlink:href="#mad74cb7bed" y="307.584" stroke="#000" stroke-width=".8" id="line2d_5"/><text x="333.576" y="322.182" font-family="DejaVu Sans" font-size="10" font-weight="400" text-anchor="middle" id="text_5">0.8</text></g><g id="xtick_6"><use x="398.52" xlink:href="#mad74cb7bed" y="307.584" stroke="#000" stroke-width=".8" id="line2d_6"/><text x="398.52" y="322.182" font-family="DejaVu Sans" font-size="10" font-weight="400" text-anchor="middle" id="text_6">1.0</text></g><text x="236.16" y="335.861" font-family="DejaVu Sans" font-size="10" font-weight="400" text-anchor="middle" id="text_7">Input Coin&apos;s Heads Probability (λ)</text></g><g id="matplotlib.axis_2"><g id="ytick_1"><g id="line2d_7"><defs><path d="M0 0h-3.5" id="m4845c1f744" stroke="#000" stroke-width=".8"/></defs><use x="57.6" xlink:href="#m4845c1f744" y="295.489" stroke="#000" stroke-width=".8"/></g><text x="50.6" y="299.289" font-family="DejaVu Sans" font-size="10" font-weight="400" text-anchor="end" id="text_8">0.00</text></g><g id="ytick_2"><use x="57.6" xlink:href="#m4845c1f744" y="262.973" stroke="#000" stroke-width=".8" id="line2d_8"/><text x="50.6" y="266.772" font-family="DejaVu Sans" font-size="10" font-weight="400" text-anchor="end" id="text_9">0.05</text></g><g id="ytick_3"><use x="57.6" xlink:href="#m4845c1f744" y="230.457" stroke="#000" stroke-width=".8" id="line2d_9"/><text x="50.6" y="234.256" font-family="DejaVu Sans" font-size="10" font-weight="400" text-anchor="end" id="text_10">0.10</text></g><g id="ytick_4"><use x="57.6" xlink:href="#m4845c1f744" y="197.94" stroke="#000" stroke-width=".8" id="line2d_10"/><text x="50.6" y="201.74" font-family="DejaVu Sans" font-size="10" font-weight="400" text-anchor="end" id="text_11">0.15</text></g><g id="ytick_5"><use x="57.6" xlink:href="#m4845c1f744" y="165.424" stroke="#000" stroke-width=".8" id="line2d_11"/><text x="50.6" y="169.223" font-family="DejaVu Sans" font-size="10" font-weight="400" text-anchor="end" id="text_12">0.20</text></g><g id="ytick_6"><use x="57.6" xlink:href="#m4845c1f744" y="132.908" stroke="#000" stroke-width=".8" id="line2d_12"/><text x="50.6" y="136.707" font-family="DejaVu Sans" font-size="10" font-weight="400" text-anchor="end" id="text_13">0.25</text></g><g id="ytick_7"><use x="57.6" xlink:href="#m4845c1f744" y="100.391" stroke="#000" stroke-width=".8" id="line2d_13"/><text x="50.6" y="104.191" font-family="DejaVu Sans" font-size="10" font-weight="400" text-anchor="end" id="text_14">0.30</text></g><g id="ytick_8"><use x="57.6" xlink:href="#m4845c1f744" y="67.875" stroke="#000" stroke-width=".8" id="line2d_14"/><text x="50.6" y="71.674" font-family="DejaVu Sans" font-size="10" font-weight="400" text-anchor="end" id="text_15">0.35</text></g><text transform="rotate(-90 22.255 174.528)" x="22.255" y="174.528" font-family="DejaVu Sans" font-size="10" font-weight="400" text-anchor="middle" id="text_16">Coin Flips Needed</text></g><path clip-path="url(#p1b4d97cc84)" d="M73.833 295.486l3.28-.357 3.278-.341 3.28-.327 3.28-.311 3.278-.298 3.28-.283 3.28-.27 3.278-.258 3.28-.244 3.28-.232 3.278-.22 3.28-.21 3.28-.197 3.278-.186 3.28-.176 3.28-.166 3.278-.155 3.28-.146 3.28-.137 3.279-.127 3.279-.118 3.28-.11 3.279-.101 3.279-.093 3.28-.085 3.279-.078 3.279-.07 3.28-.063 3.279-.055 3.279-.05 3.28-.042 3.279-.035 3.279-.03 3.28-.023 3.279-.018 3.279-.012 3.28-.006 3.279-.001 3.279.004 3.28.009 3.279.014 3.279.02 3.28.023 3.279.028 3.279.032 3.28.036 3.279.041 3.279.045 3.28.048 3.279.052 3.279.056 3.28.059 3.279.062 3.279.066 3.28.07 3.279.071 3.279.075 3.28.078 3.279.08 3.28.083 3.278.086 3.28.089 3.28.09 3.278.093 3.28.096 3.28.097 3.278.1 3.28.101 3.28.104 3.278.105 3.28.107 3.28.11 3.278.11 3.28.112 3.28.114 3.278.116 3.28.116 3.28.119 3.278.12 3.28.12 3.28.122 3.279.123 3.279.124 3.28.126 3.279.126 3.279.128 3.28.128 3.279.13 3.279.13 3.28.13 3.279.132 3.279.132 3.28.134 3.279.133 3.279.135 3.28.135 3.279.135 3.279.136 3.28.137" fill="none" stroke="#1f77b4" stroke-linecap="square" stroke-width="1.5" id="line2d_15"/><path clip-path="url(#p1b4d97cc84)" d="M73.833 97.79l3.28-35.117 3.278 27.313 3.28-33.817 3.28 1.301 3.278-3.902 3.28 5.203 3.28 15.607 3.278 19.51 3.28-9.104 3.28 28.614 3.278-28.614 3.28 22.11 3.28 10.406 3.278-57.229 3.28 58.53 3.28-27.314 3.278 26.013 3.28-20.81 3.28-31.216 3.279-9.105 3.279 48.124 3.28-19.51 3.279 46.824 3.279 10.405 3.28-29.915 3.279 14.308 3.279-63.732 3.28 19.51 3.279 14.307 3.279 3.901 3.28 20.81 3.279-6.502 3.279-10.406 3.28 13.007 3.279-22.111 3.279 16.908 3.28 9.105 3.279-31.216 3.279 49.425 3.28-42.921 3.279-3.902 3.279 54.627 3.28-26.013 3.279-28.614 3.279-3.902 3.28 20.81 3.279-39.02 3.279 48.125 3.28 7.804 3.279-2.602 3.279-52.026 3.28 40.32 3.279 1.301 3.279-22.111 3.28-2.601 3.279 26.013 3.279-14.308 3.28 2.602 3.279-10.405 3.28 31.215 3.278-36.418 3.28 18.21 3.28 2.6 3.278 9.105 3.28 23.412 3.28-10.406 3.278 1.301 3.28 14.307 3.28-45.523 3.278 27.314 3.28-23.412 3.28 22.112 3.278 11.705 3.28-9.104 3.28-11.706 3.278-19.51 3.28 42.922 3.28-18.21 3.278-1.3 3.28-7.804 3.28 18.21 3.279 11.705 3.279 20.81 3.28-28.614 3.279-2.601 3.279-1.3 3.28-1.302 3.279-1.3 3.279 22.11 3.28-19.509 3.279 7.804 3.279 5.203 3.28-10.406 3.279 10.406 3.279-37.72 3.28 28.615 3.279-15.608 3.279 20.81 3.28 14.308" fill="none" stroke="#ff7f0e" stroke-linecap="square" stroke-width="1.5" id="line2d_16"/><path d="M57.6 307.584V41.472" fill="none" stroke="#000" stroke-linecap="square" stroke-width=".8" id="patch_3"/><path d="M414.72 307.584V41.472" fill="none" stroke="#000" stroke-linecap="square" stroke-width=".8" id="patch_4"/><path d="M57.6 307.584h357.12" fill="none" stroke="#000" stroke-linecap="square" stroke-width=".8" id="patch_5"/><path d="M57.6 41.472h357.12" fill="none" stroke="#000" stroke-linecap="square" stroke-width=".8" id="patch_6"/><text x="236.16" y="35.472" font-family="DejaVu Sans" font-size="12" font-weight="400" text-anchor="middle" id="text_17">Coin Flips for 1/(3+x)</text><g id="legend_1"><path d="M64.6 190.706h187.936q2 0 2-2V160.35q0-2-2-2H64.6q-2 0-2 2v28.356q0 2 2 2z" fill="#fff" opacity=".8" stroke="#ccc" id="patch_7"/><path d="M66.6 166.448h20" fill="none" stroke="#1f77b4" stroke-linecap="square" stroke-width="1.5" id="line2d_17"/><text x="94.6" y="169.948" font-family="DejaVu Sans" font-size="10" font-weight="400" id="text_18">Coin Flip Lower Bound (Mendo)</text><path d="M66.6 181.126h20" fill="none" stroke="#ff7f0e" stroke-linecap="square" stroke-width="1.5" id="line2d_19"/><text x="94.6" y="184.626" font-family="DejaVu Sans" font-size="10" font-weight="400" id="text_19">Avg. Coins Flipped 1/(3+x)</text></g></g></g><defs><clipPath id="p1b4d97cc84"><path d="M57.6 41.472h357.12v266.112H57.6z"/></clipPath></defs></svg>
